src/assets/background.svg

<?xml version="1.0" encoding="UTF-8"?>
<svg fill="none" viewBox="0 0 2785 2489" xmlns="http://www.w3.org/2000/svg">
<g filter="url(#g)">
<path d="m743.37 303.08c-138.63 68.753-230.64 144.12-264.34 295.09-36.383 162.98 194.74 245.47 141.17 403.64-41.655 123-265.66 158.08-365.55 196.8-98.918 38.35-260.48 231.29-228.68 332.46 54.994 175 501.55 160.83 651.49 266.59 250.33 176.59-4.723 482.14 292.9 554.88 211.51 51.69 287.72-249.48 505.05-236.1 237.48 14.61 265.32 303.81 498.77 349.72 237.39 46.68 301.65-229.74 356.58-466.05l1.48-6.39c36.33-156.2-295.11-249.77-105.28-462.65 137.16-153.82 195 160.41 283.63 92.53 120.8-92.53 130.43-35.06 225.32-254.38 90.3-208.72-142.95-340.28-343.79-400.4-118.09-35.352-237.98 9.991-312.53-126.04-85.79-156.55 168.04-260.29 122.97-365.82-49.1-114.94 281.71-202.48 189.56-286.96-78.19-71.679-158.97-60.175-265.06-59.56-139.5 0.808-201.29 100.35-340.6 107.59-211.77 11.012-334.32-296.94-511.9-181.09-84.09 54.854-64.94 152.75-146.63 211.12-122.66 87.668-249.47-31.983-384.55 35.013z" fill="#F8F8F8"/>
</g>
<g filter="url(#f)">
<path d="m935.99 634.2c-91.208 45.235-151.74 94.818-173.92 194.15-23.938 107.23 65.662 125.88 30.417 229.95-27.406 80.92-112.32 139.63-178.05 165.1-65.081 25.23-171.38 152.18-150.46 218.74 36.183 115.14 274.56 189.21 373.21 258.8 164.7 116.18 52.322 233.82 248.14 281.67 139.16 34.01 189.3-164.14 332.29-155.34 156.24 9.62 174.56 199.89 328.16 230.1 157.6 30.99 363.64 60.72 400-95.66 23.9-102.77-67.07-139.67-54.29-244.41 8.89-72.9 8.42-129.63 54.29-187 98.2-122.81 279.29-19.02 341.72-163.31 59.41-137.32 20.52-277.38-96.4-370.8-70.58-56.403-248.77 56.431-319.33 0-58.98-47.161-95.33-150.27-57.16-220.2 39.39-72.181 66.77-160.6 6.15-216.18-51.45-47.16-104.59-39.591-174.4-39.187-91.78 0.532-132.43 66.022-224.09 70.788-139.33 7.245-219.96-195.36-336.8-119.15-55.33 36.091-42.73 100.5-96.47 138.91-80.71 57.681-164.13-21.042-253.01 23.037z" fill="#F7F7F7"/>
</g>
<g filter="url(#e)">
<path d="m995.31 847.64c-69.133 36.384-114.66 75.547-129.86 152.2-16.408 82.747-8.821 125.94-33.959 206.46-19.548 62.62-25.318 154.82-75.264 175.57-49.458 20.55-125.49 43.83-108.24 94.55 29.848 87.72 210.07 108.26 287 159.88 128.43 86.18 48.343 210.5 199.4 243.67 107.36 23.57 168.26-105.32 278.1-101.17 120.01 4.54 111.47 126.13 229.82 146.52 121.44 20.92 280.02 39.99 305.06-80.71 16.46-79.32 21.72-127.68 29.62-208.31 5.49-56.12 55.36-75.13 89.5-120 73.08-96.05 127.74-72.6 173-184.5 43.07-106.49-30.16-163.22-121.53-232.8-55.17-42.01-115.44-57.13-170.59-99.157-46.09-35.127-60.87-121.74-84.88-174.49-26.16-57.459 10.99-13.018-36.53-54.576-40.31-35.263-80.94-28.485-134.47-26.903-70.38 2.08-100.37 53.091-170.59 58.419-106.73 8.099-172.26-145.96-260.49-85.323-41.78 28.711-30.94 77.922-71.46 108.38-60.85 45.746-126.28-13.163-193.64 22.291z" fill="#eee"/>
</g>
<g filter="url(#d)">
<path d="m1164 883.77c-53.7 28.184-97.2 62.146-109 121.52-12.75 64.1-83.478 43.63-103 106-15.184 48.5-34.417 138.59-53.5 176-44.125 86.5-57.529 145.49-44.125 184.77 23.184 67.96 85.37 107.74 145.12 147.73 99.764 66.76 47.164 174.32 164.5 200.01 83.39 18.26 174.68-119.73 260-116.51 93.22 3.52 110.79 100.72 202.72 116.51 94.34 16.2 217.51 30.98 236.96-62.52 12.79-61.45 12.18-58.53 18.32-120.99 4.26-43.47 9.98-48.74 36.5-83.5 56.76-74.41 105.2-67.28 140.36-153.97 33.46-82.49 8.3-165.22-62.67-219.12-42.85-32.54-48.86-35.85-91.69-68.41-35.81-27.21-84.85-65.14-103.5-106-20.32-44.509 5.28-47.649-31.62-79.841-31.32-27.316-62.88-22.065-104.46-20.84-54.67 1.611-77.96 41.126-132.5 45.253-82.91 6.274-133.81-113.06-202.34-66.093-32.45 22.24-36.61-2.756-68.08 20.84-47.27 35.436-45.68-48.304-98-20.84z" fill="#E6E6E6"/>
</g>
<g filter="url(#c)">
<path d="m1225.5 1051.8c-43.7 18.14-67.29 54.79-98.97 78.19-34.88 25.75-57.64 28.07-73.53 68.2-12.35 31.2-28 89.16-43.53 113.23-35.903 55.65-46.809 93.6-35.903 118.88 18.864 43.72 69.463 69.32 118.08 95.04 81.18 42.96 38.37 112.16 133.85 128.69 67.85 11.74 143.76-21.88 213.18-19.81 75.85 2.27 88.52 9.64 163.32 19.81 76.76 10.42 176.98 19.92 192.81-40.23 10.4-39.53 9.91-37.66 14.9-77.84 3.47-27.97 8.12-31.36 29.7-53.72 46.19-47.87 85.6-43.29 114.21-99.06 27.22-53.07 6.75-106.3-51-140.98-34.86-20.94-39.75-23.07-74.6-44.01-29.13-17.51-69.04-41.91-84.22-68.2-16.53-28.64 4.3-30.66-25.73-51.37-25.48-17.58-51.15-14.2-84.98-13.41-44.49 1.04-39.19 10.75-83.56 13.41-67.46 4.04-44.5-26.82-151-51.38-29.27-6.75-77.39-15.18-103 0-38.46 22.8-27.46 6.89-70.03 24.56z" fill="#D8D8D8"/>
</g>
<g filter="url(#b)">
<path d="m1287.2 1132c-32.55 13.82-45.37 37.9-66.07 59.58-33.64 35.22-50.6 21.39-62.44 51.97-9.2 23.78-20.86 67.95-32.43 86.29-26.74 42.41-34.87 71.33-26.74 90.59 14.05 33.32 51.74 52.83 87.97 72.43 60.47 32.73 28.58 85.46 99.71 98.06 50.55 8.95 107.1-16.67 158.82-15.09 56.5 1.72 65.94 7.35 121.67 15.09 57.18 7.95 131.84 15.19 143.63-30.65 7.75-30.13 7.39-28.7 11.11-59.32 2.58-21.31 6.05-23.9 22.12-40.94 34.41-36.48 63.77-32.99 85.08-75.49 20.28-40.44 5.04-81-37.99-107.43-25.97-15.95-29.61-17.58-55.58-33.54-21.7-13.34-51.43-31.93-62.73-51.97-12.32-21.82 3.2-23.36-19.17-39.14-18.98-13.4-38.11-10.82-63.32-10.22-33.14 0.79-29.19 8.19-62.25 10.22-50.25 3.07-33.15-20.44-112.49-39.15-21.8-5.15-57.65-11.58-76.73-0.01-28.65 17.38-20.45 5.26-52.17 18.72z" fill="#C9C9C9"/>
</g>
<g filter="url(#a)">
<path d="m1352.5 1206.5c-20.66 9.73-37.39 21.46-41.94 41.95-4.9 22.13-32.12 15.06-39.63 36.59-5.84 16.75-13.24 47.85-20.58 60.76-16.98 29.86-22.14 50.22-16.98 63.78 8.92 23.46 32.85 37.19 55.84 51 38.38 23.04 18.14 60.17 63.29 69.04 32.09 6.3 67.99-11.73 100.82-10.62 35.86 1.21 41.86 5.17 77.23 10.62 36.3 5.59 83.69 10.69 91.17-21.58 4.92-21.21 4.69-20.21 7.05-41.77 1.64-15 3.84-16.82 14.05-28.82 21.84-25.69 40.48-23.23 54-53.15 12.88-28.48 3.2-57.03-24.11-75.64-16.49-11.23-18.8-12.38-35.28-23.62-13.78-9.39-32.65-22.48-39.83-36.59-7.81-15.36 2.04-16.45-12.16-27.56-12.05-9.43-24.19-7.61-40.19-7.19-21.04 0.55-18.53 5.77-39.52 7.19-31.9 2.17-21.04-14.39-71.4-27.56-13.84-3.62-36.6-8.15-48.71 0-18.19 12.23-12.98 3.69-33.12 13.17z" fill="#C4C4C4"/>
</g>
<defs>
<filter id="g" x="19.881" y="30.839" width="2736" height="2463.5" color-interpolation-filters="sRGB" filterUnits="userSpaceOnUse">
<feFlood flood-opacity="0" result="BackgroundImageFix"/>
<feBlend in="SourceGraphic" in2="BackgroundImageFix" result="shape"/>
<feColorMatrix in="SourceAlpha" result="hardAlpha" values="0 0 0 0 0 0 0 0 0 0 0 0 0 0 0 0 0 0 127 0"/>
<feOffset dx="-2" dy="23"/>
<feGaussianBlur stdDeviation="23"/>
<feComposite in2="hardAlpha" k2="-1" k3="1" operator="arithmetic"/>
<feColorMatrix values="0 0 0 0 0 0 0 0 0 0 0 0 0 0 0 0 0 0 0.25 0"/>
<feBlend in2="shape" result="effect1_innerShadow"/>
</filter>
<filter id="f" x="459.3" y="455.08" width="2055.7" height="1650" color-interpolation-filters="sRGB" filterUnits="userSpaceOnUse">
<feFlood flood-opacity="0" result="BackgroundImageFix"/>
<feBlend in="SourceGraphic" in2="BackgroundImageFix" result="shape"/>
<feColorMatrix in="SourceAlpha" result="hardAlpha" values="0 0 0 0 0 0 0 0 0 0 0 0 0 0 0 0 0 0 127 0"/>
<feOffset dx="-2" dy="23"/>
<feGaussianBlur stdDeviation="23"/>
<feComposite in2="hardAlpha" k2="-1" k3="1" operator="arithmetic"/>
<feColorMatrix values="0 0 0 0 0 0 0 0 0 0 0 0 0 0 0 0 0 0 0.25 0"/>
<feBlend in2="shape" result="effect1_innerShadow"/>
</filter>
<filter id="e" x="643.49" y="702.79" width="1608.7" height="1261" color-interpolation-filters="sRGB" filterUnits="userSpaceOnUse">
<feFlood flood-opacity="0" result="BackgroundImageFix"/>
<feBlend in="SourceGraphic" in2="BackgroundImageFix" result="shape"/>
<feColorMatrix in="SourceAlpha" result="hardAlpha" values="0 0 0 0 0 0 0 0 0 0 0 0 0 0 0 0 0 0 127 0"/>
<feOffset dx="-2" dy="23"/>
<feGaussianBlur stdDeviation="23"/>
<feComposite in2="hardAlpha" k2="-1" k3="1" operator="arithmetic"/>
<feColorMatrix values="0 0 0 0 0 0 0 0 0 0 0 0 0 0 0 0 0 0 0.25 0"/>
<feBlend in2="shape" result="effect1_innerShadow"/>
</filter>
<filter id="d" x="847.39" y="872.79" width="1226.1" height="982" color-interpolation-filters="sRGB" filterUnits="userSpaceOnUse">
<feFlood flood-opacity="0" result="BackgroundImageFix"/>
<feBlend in="SourceGraphic" in2="BackgroundImageFix" result="shape"/>
<feColorMatrix in="SourceAlpha" result="hardAlpha" values="0 0 0 0 0 0 0 0 0 0 0 0 0 0 0 0 0 0 127 0"/>
<feOffset dx="-2" dy="23"/>
<feGaussianBlur stdDeviation="23"/>
<feComposite in2="hardAlpha" k2="-1" k3="1" operator="arithmetic"/>
<feColorMatrix values="0 0 0 0 0 0 0 0 0 0 0 0 0 0 0 0 0 0 0.25 0"/>
<feBlend in2="shape" result="effect1_innerShadow"/>
</filter>
<filter id="c" x="967.49" y="1018.8" width="998" height="666.01" color-interpolation-filters="sRGB" filterUnits="userSpaceOnUse">
<feFlood flood-opacity="0" result="BackgroundImageFix"/>
<feBlend in="SourceGraphic" in2="BackgroundImageFix" result="shape"/>
<feColorMatrix in="SourceAlpha" result="hardAlpha" values="0 0 0 0 0 0 0 0 0 0 0 0 0 0 0 0 0 0 127 0"/>
<feOffset dx="-2" dy="23"/>
<feGaussianBlur stdDeviation="23"/>
<feComposite in2="hardAlpha" k2="-1" k3="1" operator="arithmetic"/>
<feColorMatrix values="0 0 0 0 0 0 0 0 0 0 0 0 0 0 0 0 0 0 0.25 0"/>
<feBlend in2="shape" result="effect1_innerShadow"/>
</filter>
<filter id="b" x="1094.5" y="1106.8" width="744" height="513" color-interpolation-filters="sRGB" filterUnits="userSpaceOnUse">
<feFlood flood-opacity="0" result="BackgroundImageFix"/>
<feBlend in="SourceGraphic" in2="BackgroundImageFix" result="shape"/>
<feColorMatrix in="SourceAlpha" result="hardAlpha" values="0 0 0 0 0 0 0 0 0 0 0 0 0 0 0 0 0 0 127 0"/>
<feOffset dx="-2" dy="23"/>
<feGaussianBlur stdDeviation="23"/>
<feComposite in2="hardAlpha" k2="-1" k3="1" operator="arithmetic"/>
<feColorMatrix values="0 0 0 0 0 0 0 0 0 0 0 0 0 0 0 0 0 0 0.25 0"/>
<feBlend in2="shape" result="effect1_innerShadow"/>
</filter>
<filter id="a" x="1229.5" y="1188.8" width="473" height="368" color-interpolation-filters="sRGB" filterUnits="userSpaceOnUse">
<feFlood flood-opacity="0" result="BackgroundImageFix"/>
<feBlend in="SourceGraphic" in2="BackgroundImageFix" result="shape"/>
<feColorMatrix in="SourceAlpha" result="hardAlpha" values="0 0 0 0 0 0 0 0 0 0 0 0 0 0 0 0 0 0 127 0"/>
<feOffset dx="-2" dy="23"/>
<feGaussianBlur stdDeviation="23"/>
<feComposite in2="hardAlpha" k2="-1" k3="1" operator="arithmetic"/>
<feColorMatrix values="0 0 0 0 0 0 0 0 0 0 0 0 0 0 0 0 0 0 0.25 0"/>
<feBlend in2="shape" result="effect1_innerShadow"/>
</filter>
</defs>
</svg>

<svg width="2785" height="2489" viewBox="0 0 2785 2489" fill="none" xmlns="http://www.w3.org/2000/svg">
<g filter="url(#filter0_i)">
<path d="M743.367 303.079C604.739 371.832 512.729 447.194 479.025 598.165C442.642 761.14 673.764 843.638 620.196 1001.8C578.541 1124.8 354.537 1159.88 254.642 1198.6C155.724 1236.95 -5.83632 1429.89 25.9579 1531.06C80.9521 1706.06 527.512 1691.89 677.447 1797.65C927.774 1974.24 672.724 2279.79 970.347 2352.53C1181.86 2404.22 1258.07 2103.05 1475.4 2116.43C1712.88 2131.04 1740.72 2420.24 1974.17 2466.15C2211.56 2512.83 2275.82 2236.41 2330.75 2000.1L2332.23 1993.71C2368.56 1837.51 2037.12 1743.94 2226.95 1531.06C2364.11 1377.24 2421.95 1691.47 2510.58 1623.59C2631.38 1531.06 2641.01 1588.53 2735.9 1369.21C2826.2 1160.49 2592.95 1028.93 2392.11 968.81C2274.02 933.458 2154.13 978.801 2079.58 842.772C1993.79 686.224 2247.62 582.48 2202.55 476.957C2153.45 362.02 2484.26 274.475 2392.11 190.001C2313.92 118.322 2233.14 129.826 2127.05 130.441C1987.55 131.249 1925.76 230.788 1786.45 238.032C1574.68 249.044 1452.13 -58.9037 1274.55 56.941C1190.46 111.795 1209.61 209.689 1127.92 268.066C1005.26 355.734 878.452 236.083 743.367 303.079Z" fill="#F8F8F8"/>
</g>
<g filter="url(#filter1_i)">
<path d="M935.988 634.197C844.78 679.432 784.243 729.015 762.068 828.344C738.13 935.571 827.73 954.227 792.485 1058.29C765.079 1139.21 680.163 1197.92 614.438 1223.39C549.357 1248.62 443.061 1375.57 463.979 1442.13C500.162 1557.27 738.539 1631.34 837.187 1700.93C1001.89 1817.11 889.509 1934.75 1085.33 1982.6C1224.49 2016.61 1274.63 1818.46 1417.62 1827.26C1573.86 1836.88 1592.18 2027.15 1745.78 2057.36C1903.38 2088.35 2109.42 2118.08 2145.78 1961.7C2169.68 1858.93 2078.71 1822.03 2091.49 1717.29C2100.38 1644.39 2099.91 1587.66 2145.78 1530.29C2243.98 1407.48 2425.07 1511.27 2487.5 1366.98C2546.91 1229.66 2508.02 1089.6 2391.1 996.179C2320.52 939.776 2142.33 1052.61 2071.77 996.179C2012.79 949.018 1976.44 845.91 2014.61 775.974C2054 703.793 2081.38 615.377 2020.76 559.799C1969.31 512.639 1916.17 520.208 1846.36 520.612C1754.58 521.144 1713.93 586.634 1622.27 591.4C1482.94 598.645 1402.31 396.036 1285.47 472.254C1230.14 508.345 1242.74 572.752 1189 611.16C1108.29 668.841 1024.87 590.118 935.988 634.197Z" fill="#F7F7F7"/>
</g>
<g filter="url(#filter2_i)">
<path d="M995.307 847.636C926.174 884.02 880.645 923.183 865.445 999.833C849.037 1082.58 856.624 1125.77 831.486 1206.29C811.938 1268.91 806.168 1361.11 756.222 1381.86C706.764 1402.41 630.728 1425.69 647.984 1476.41C677.832 1564.13 858.057 1584.67 934.986 1636.29C1063.42 1722.47 983.329 1846.79 1134.39 1879.96C1241.75 1903.53 1302.65 1774.64 1412.49 1778.79C1532.5 1783.33 1523.96 1904.92 1642.31 1925.31C1763.75 1946.23 1922.33 1965.3 1947.37 1844.6C1963.83 1765.28 1969.09 1716.92 1976.99 1636.29C1982.48 1580.17 2032.35 1561.16 2066.49 1516.29C2139.57 1420.24 2194.23 1443.69 2239.49 1331.79C2282.56 1225.3 2209.33 1168.57 2117.96 1098.99C2062.79 1056.98 2002.52 1041.86 1947.37 999.833C1901.28 964.706 1886.5 878.097 1862.49 825.345C1836.33 767.886 1873.48 812.327 1825.96 770.769C1785.65 735.506 1745.02 742.284 1691.49 743.866C1621.11 745.946 1591.12 796.957 1520.9 802.285C1414.17 810.384 1348.64 656.329 1260.41 716.962C1218.63 745.673 1229.47 794.884 1188.95 825.345C1128.1 871.091 1062.67 812.182 995.307 847.636Z" fill="#EEEEEE"/>
</g>
<g filter="url(#filter3_i)">
<path d="M1163.99 883.769C1110.29 911.953 1066.79 945.915 1054.99 1005.29C1042.24 1069.39 971.512 1048.92 951.986 1111.29C936.802 1159.79 917.569 1249.88 898.486 1287.29C854.361 1373.79 840.957 1432.78 854.361 1472.06C877.545 1540.02 939.731 1579.8 999.486 1619.79C1099.25 1686.55 1046.65 1794.11 1163.99 1819.8C1247.38 1838.06 1338.67 1700.07 1423.99 1703.29C1517.21 1706.81 1534.78 1804.01 1626.71 1819.8C1721.05 1836 1844.22 1850.78 1863.67 1757.28C1876.46 1695.83 1875.85 1698.75 1881.99 1636.29C1886.25 1592.82 1891.97 1587.55 1918.49 1552.79C1975.25 1478.38 2023.69 1485.51 2058.85 1398.82C2092.31 1316.33 2067.15 1233.6 1996.18 1179.7C1953.33 1147.16 1947.32 1143.85 1904.49 1111.29C1868.68 1084.08 1819.64 1046.15 1800.99 1005.29C1780.67 960.781 1806.27 957.641 1769.37 925.449C1738.05 898.133 1706.49 903.384 1664.91 904.609C1610.24 906.22 1586.95 945.735 1532.41 949.862C1449.5 956.136 1398.6 836.799 1330.07 883.769C1297.62 906.009 1293.46 881.013 1261.99 904.609C1214.72 940.045 1216.31 856.305 1163.99 883.769Z" fill="#E6E6E6"/>
</g>
<g filter="url(#filter4_i)">
<path d="M1225.46 1051.85C1181.76 1069.99 1158.17 1106.64 1126.49 1130.04C1091.61 1155.79 1068.85 1158.11 1052.96 1198.24C1040.61 1229.44 1024.96 1287.4 1009.43 1311.47C973.527 1367.12 962.621 1405.07 973.527 1430.35C992.391 1474.07 1042.99 1499.67 1091.61 1525.39C1172.79 1568.35 1129.98 1637.55 1225.46 1654.08C1293.31 1665.82 1369.22 1632.2 1438.64 1634.27C1514.49 1636.54 1527.16 1643.91 1601.96 1654.08C1678.72 1664.5 1778.94 1674 1794.77 1613.85C1805.17 1574.32 1804.68 1576.19 1809.67 1536.01C1813.14 1508.04 1817.79 1504.65 1839.37 1482.29C1885.56 1434.42 1924.97 1439 1953.58 1383.23C1980.8 1330.16 1960.33 1276.93 1902.58 1242.25C1867.72 1221.31 1862.83 1219.18 1827.98 1198.24C1798.85 1180.73 1758.94 1156.33 1743.76 1130.04C1727.23 1101.4 1748.06 1099.38 1718.03 1078.67C1692.55 1061.09 1666.88 1064.47 1633.05 1065.26C1588.56 1066.3 1593.86 1076.01 1549.49 1078.67C1482.03 1082.71 1504.99 1051.85 1398.49 1027.29C1369.22 1020.54 1321.1 1012.11 1295.49 1027.29C1257.03 1050.09 1268.03 1034.18 1225.46 1051.85Z" fill="#D8D8D8"/>
</g>
<g filter="url(#filter5_i)">
<path d="M1287.18 1131.99C1254.63 1145.81 1241.81 1169.89 1221.11 1191.57C1187.47 1226.79 1170.51 1212.96 1158.67 1243.54C1149.47 1267.32 1137.81 1311.49 1126.24 1329.83C1099.5 1372.24 1091.37 1401.16 1099.5 1420.42C1113.55 1453.74 1151.24 1473.25 1187.47 1492.85C1247.94 1525.58 1216.05 1578.31 1287.18 1590.91C1337.73 1599.86 1394.28 1574.24 1446 1575.82C1502.5 1577.54 1511.94 1583.17 1567.67 1590.91C1624.85 1598.86 1699.51 1606.1 1711.3 1560.26C1719.05 1530.13 1718.69 1531.56 1722.41 1500.94C1724.99 1479.63 1728.46 1477.04 1744.53 1460C1778.94 1423.52 1808.3 1427.01 1829.61 1384.51C1849.89 1344.07 1834.65 1303.51 1791.62 1277.08C1765.65 1261.13 1762.01 1259.5 1736.04 1243.54C1714.34 1230.2 1684.61 1211.61 1673.31 1191.57C1660.99 1169.75 1676.51 1168.21 1654.14 1152.43C1635.16 1139.03 1616.03 1141.61 1590.82 1142.21C1557.68 1143 1561.63 1150.4 1528.57 1152.43C1478.32 1155.5 1495.42 1131.99 1416.08 1113.28C1394.28 1108.13 1358.43 1101.7 1339.35 1113.27C1310.7 1130.65 1318.9 1118.53 1287.18 1131.99Z" fill="#C9C9C9"/>
</g>
<g filter="url(#filter6_i)">
<path d="M1352.53 1206.53C1331.87 1216.26 1315.14 1227.99 1310.59 1248.48C1305.69 1270.61 1278.47 1263.54 1270.96 1285.07C1265.12 1301.82 1257.72 1332.92 1250.38 1345.83C1233.4 1375.69 1228.24 1396.05 1233.4 1409.61C1242.32 1433.07 1266.25 1446.8 1289.24 1460.61C1327.62 1483.65 1307.38 1520.78 1352.53 1529.65C1384.62 1535.95 1420.52 1517.92 1453.35 1519.03C1489.21 1520.24 1495.21 1524.2 1530.58 1529.65C1566.88 1535.24 1614.27 1540.34 1621.75 1508.07C1626.67 1486.86 1626.44 1487.86 1628.8 1466.3C1630.44 1451.3 1632.64 1449.48 1642.85 1437.48C1664.69 1411.79 1683.33 1414.25 1696.85 1384.33C1709.73 1355.85 1700.05 1327.3 1672.74 1308.69C1656.25 1297.46 1653.94 1296.31 1637.46 1285.07C1623.68 1275.68 1604.81 1262.59 1597.63 1248.48C1589.82 1233.12 1599.67 1232.03 1585.47 1220.92C1573.42 1211.49 1561.28 1213.31 1545.28 1213.73C1524.24 1214.28 1526.75 1219.5 1505.76 1220.92C1473.86 1223.09 1484.72 1206.53 1434.36 1193.36C1420.52 1189.74 1397.76 1185.21 1385.65 1193.36C1367.46 1205.59 1372.67 1197.05 1352.53 1206.53Z" fill="#C4C4C4"/>
</g>
<defs>
<filter id="filter0_i" x="19.8813" y="30.8391" width="2736.02" height="2463.51" filterUnits="userSpaceOnUse" color-interpolation-filters="sRGB">
<feFlood flood-opacity="0" result="BackgroundImageFix"/>
<feBlend mode="normal" in="SourceGraphic" in2="BackgroundImageFix" result="shape"/>
<feColorMatrix in="SourceAlpha" type="matrix" values="0 0 0 0 0 0 0 0 0 0 0 0 0 0 0 0 0 0 127 0" result="hardAlpha"/>
<feOffset dx="-2" dy="23"/>
<feGaussianBlur stdDeviation="23"/>
<feComposite in2="hardAlpha" operator="arithmetic" k2="-1" k3="1"/>
<feColorMatrix type="matrix" values="0 0 0 0 0 0 0 0 0 0 0 0 0 0 0 0 0 0 0.25 0"/>
<feBlend mode="normal" in2="shape" result="effect1_innerShadow"/>
</filter>
<filter id="filter1_i" x="459.297" y="455.081" width="2055.72" height="1650.03" filterUnits="userSpaceOnUse" color-interpolation-filters="sRGB">
<feFlood flood-opacity="0" result="BackgroundImageFix"/>
<feBlend mode="normal" in="SourceGraphic" in2="BackgroundImageFix" result="shape"/>
<feColorMatrix in="SourceAlpha" type="matrix" values="0 0 0 0 0 0 0 0 0 0 0 0 0 0 0 0 0 0 127 0" result="hardAlpha"/>
<feOffset dx="-2" dy="23"/>
<feGaussianBlur stdDeviation="23"/>
<feComposite in2="hardAlpha" operator="arithmetic" k2="-1" k3="1"/>
<feColorMatrix type="matrix" values="0 0 0 0 0 0 0 0 0 0 0 0 0 0 0 0 0 0 0.25 0"/>
<feBlend mode="normal" in2="shape" result="effect1_innerShadow"/>
</filter>
<filter id="filter2_i" x="643.486" y="702.791" width="1608.67" height="1261" filterUnits="userSpaceOnUse" color-interpolation-filters="sRGB">
<feFlood flood-opacity="0" result="BackgroundImageFix"/>
<feBlend mode="normal" in="SourceGraphic" in2="BackgroundImageFix" result="shape"/>
<feColorMatrix in="SourceAlpha" type="matrix" values="0 0 0 0 0 0 0 0 0 0 0 0 0 0 0 0 0 0 127 0" result="hardAlpha"/>
<feOffset dx="-2" dy="23"/>
<feGaussianBlur stdDeviation="23"/>
<feComposite in2="hardAlpha" operator="arithmetic" k2="-1" k3="1"/>
<feColorMatrix type="matrix" values="0 0 0 0 0 0 0 0 0 0 0 0 0 0 0 0 0 0 0.25 0"/>
<feBlend mode="normal" in2="shape" result="effect1_innerShadow"/>
</filter>
<filter id="filter3_i" x="847.394" y="872.791" width="1226.09" height="982" filterUnits="userSpaceOnUse" color-interpolation-filters="sRGB">
<feFlood flood-opacity="0" result="BackgroundImageFix"/>
<feBlend mode="normal" in="SourceGraphic" in2="BackgroundImageFix" result="shape"/>
<feColorMatrix in="SourceAlpha" type="matrix" values="0 0 0 0 0 0 0 0 0 0 0 0 0 0 0 0 0 0 127 0" result="hardAlpha"/>
<feOffset dx="-2" dy="23"/>
<feGaussianBlur stdDeviation="23"/>
<feComposite in2="hardAlpha" operator="arithmetic" k2="-1" k3="1"/>
<feColorMatrix type="matrix" values="0 0 0 0 0 0 0 0 0 0 0 0 0 0 0 0 0 0 0.25 0"/>
<feBlend mode="normal" in2="shape" result="effect1_innerShadow"/>
</filter>
<filter id="filter4_i" x="967.486" y="1018.78" width="998" height="666.007" filterUnits="userSpaceOnUse" color-interpolation-filters="sRGB">
<feFlood flood-opacity="0" result="BackgroundImageFix"/>
<feBlend mode="normal" in="SourceGraphic" in2="BackgroundImageFix" result="shape"/>
<feColorMatrix in="SourceAlpha" type="matrix" values="0 0 0 0 0 0 0 0 0 0 0 0 0 0 0 0 0 0 127 0" result="hardAlpha"/>
<feOffset dx="-2" dy="23"/>
<feGaussianBlur stdDeviation="23"/>
<feComposite in2="hardAlpha" operator="arithmetic" k2="-1" k3="1"/>
<feColorMatrix type="matrix" values="0 0 0 0 0 0 0 0 0 0 0 0 0 0 0 0 0 0 0.25 0"/>
<feBlend mode="normal" in2="shape" result="effect1_innerShadow"/>
</filter>
<filter id="filter5_i" x="1094.49" y="1106.79" width="744" height="513" filterUnits="userSpaceOnUse" color-interpolation-filters="sRGB">
<feFlood flood-opacity="0" result="BackgroundImageFix"/>
<feBlend mode="normal" in="SourceGraphic" in2="BackgroundImageFix" result="shape"/>
<feColorMatrix in="SourceAlpha" type="matrix" values="0 0 0 0 0 0 0 0 0 0 0 0 0 0 0 0 0 0 127 0" result="hardAlpha"/>
<feOffset dx="-2" dy="23"/>
<feGaussianBlur stdDeviation="23"/>
<feComposite in2="hardAlpha" operator="arithmetic" k2="-1" k3="1"/>
<feColorMatrix type="matrix" values="0 0 0 0 0 0 0 0 0 0 0 0 0 0 0 0 0 0 0.25 0"/>
<feBlend mode="normal" in2="shape" result="effect1_innerShadow"/>
</filter>
<filter id="filter6_i" x="1229.49" y="1188.79" width="473" height="368" filterUnits="userSpaceOnUse" color-interpolation-filters="sRGB">
<feFlood flood-opacity="0" result="BackgroundImageFix"/>
<feBlend mode="normal" in="SourceGraphic" in2="BackgroundImageFix" result="shape"/>
<feColorMatrix in="SourceAlpha" type="matrix" values="0 0 0 0 0 0 0 0 0 0 0 0 0 0 0 0 0 0 127 0" result="hardAlpha"/>
<feOffset dx="-2" dy="23"/>
<feGaussianBlur stdDeviation="23"/>
<feComposite in2="hardAlpha" operator="arithmetic" k2="-1" k3="1"/>
<feColorMatrix type="matrix" values="0 0 0 0 0 0 0 0 0 0 0 0 0 0 0 0 0 0 0.25 0"/>
<feBlend mode="normal" in2="shape" result="effect1_innerShadow"/>
</filter>
</defs>
</svg>
